X:1
T:Title
%%score ( 1 2 ) ( 3 4 )
L:1/8
Q:1/4=90
M:4/4
K:D
V:1 treble nm="Midi_20"
V:2 treble 
V:3 bass nm="Midi_20"
V:4 bass 
V:1
"^Dretzel (87. 87. 77.""^William Henry Monk\n(1823-89)""^Thomas Kelly\n(1769-1855)""^Through the day thy love has spared us" D2 A2 A2 G2 | %1
 F2 E2 D2 D2 || d2 c2 B2 c2 | B2 B2 A4 || D2 A2 A2 G2 | F2 E2 D2 D2 || d2 c2 B2 c2 | B2 B2 A4 || %8
 A2 A2 B2 B2 | c2 c2 d4 || A2 A2 G2 F2 | E2 E2 D4 |] %12
V:2
 A,2 A,2 D2 E2 | D2 C2 D2 A,2 || D2 E2 E2 E2 | F2 E2 C4 || D2 C2 D2 E2 | D2 C2 D2 A,2 || %6
 D2 E2 E2 E2 | E3 D C4 || E2 D2 D2 E2 | EF G2 (G2 F2) || E2 D2 B,C D2 | D2 C2 D4 |] %12
V:3
 F,2 E,2 B,2 A,2 | A,3 G, G,2 F,2 || F,2 A,2 ^G,2 A,2 | A,2 ^G,2 A,4 || F,2 A,G, F,2 A,2 | %5
 A,3 G, G,2 F,2 || %6
"^1. Through the day thy love has spared us;\nNow we lay us down to rest;\nThrough the silent watches guard us,\nLet no foe our peace molest:\nJesus, thou our Guardian be;\nSweet it is to trust in thee." F,^G, A,2 G,2 A,2 | %7
 A,2 ^G,2 A,4 || A,2 F,2 F,2 G,2 | %9
"^2. Pilgrims here on earth, and strangers,\nDwelling in the midst of foes;\nUs and ours preserve from dangers;\nIn thine arms may we repose.\nAnd, when life's sad day is past,\nRest with thee in  heaven at last." A,2 A,2 A,4 || %10
 A,2 F,2 G,2 A,2 | B,2 A,2 F,4 |] %12
V:4
 D,2 C,2 B,,2 C,2 | D,2 A,,2 D,2 D,2 || B,,2 C,D, E,2 C,2 | D,2 E,2 A,,4 || D,2 A,,2 B,,2 C,2 | %5
 D,2 A,,2 D,2 D,2 || B,,2 C,2 D,2 C,D, | E,2 E,2 A,,4 || C,2 D,2 B,,2 E,2 | A,,2 A,,2 D,4 || %10
 C,2 D,2 E,2 F,2 | G,2 A,2 D,4 |] %12

